X:2725
T:Castle Gate,The. HSJJ.121
M:9/8
L:1/8
Q:120
S:HSJ Jackson,Wyresdale,Lancs.1823
R:Slip Jig
O:England
A:Lancashire
H:1823
Z:Chris Partington.
K:E
E|Ace Ace Ace|Ace BcA GFE|Ace Ace Ace|cag fede2:|!
|:e|fga def Bcd|FGA BcA GFE|FAd GBe Ace|fdB BAG A2:|]


